svg/country-4x3/lc.svg

<?xml version="1.0" encoding="UTF-8" standalone="no"?>
<!-- Created with Sodipodi ("http://www.sodipodi.com/") -->

<svg
   xmlns:dc="http://purl.org/dc/elements/1.1/"
   xmlns:cc="http://creativecommons.org/ns#"
   xmlns:rdf="http://www.w3.org/1999/02/22-rdf-syntax-ns#"
   xmlns:svg="http://www.w3.org/2000/svg"
   xmlns="http://www.w3.org/2000/svg"
   xmlns:sodipodi="http://sodipodi.sourceforge.net/DTD/sodipodi-0.dtd"
   xmlns:inkscape="http://www.inkscape.org/namespaces/inkscape"
   id="svg604"
   sodipodi:version="0.33pre"
   width="640"
   height="480"
   sodipodi:docname="lc.svg"
   version="1.1"
   inkscape:version="0.48.1 r9760">
  <sodipodi:namedview
     id="base"
     showgrid="true"
     snaptogrid="false"
     snaptoguides="true"
     inkscape:zoom="0.33060318"
     inkscape:cx="111.91665"
     inkscape:cy="248.03149"
     inkscape:window-width="1280"
     inkscape:window-height="746"
     inkscape:window-x="0"
     inkscape:window-y="24"
     inkscape:window-maximized="1"
     inkscape:current-layer="svg604" />
  <metadata
     id="metadata3135">
    <rdf:RDF>
      <cc:Work
         rdf:about="">
        <dc:format>image/svg+xml</dc:format>
        <dc:type
           rdf:resource="http://purl.org/dc/dcmitype/StillImage" />
      </cc:Work>
    </rdf:RDF>
  </metadata>
  <defs
     id="defs606" />
  <g
     id="flag"
     inkscape:label="#g4785">
    <rect
       y="0"
       x="0"
       height="480"
       width="640"
       id="rect607"
       style="font-size:12px;fill:#65cfff;fill-opacity:1;fill-rule:evenodd;stroke:none" />
    <path
       sodipodi:nodetypes="cccc"
       id="path615"
       d="M 318.90177,41.991388 481.56433,437.28932 158.96498,438.19792 318.90177,41.991388 z"
       style="fill:#ffffff;fill-opacity:1;fill-rule:evenodd;stroke:none"
       inkscape:connector-curvature="0" />
    <path
       sodipodi:nodetypes="cccc"
       id="path617"
       d="M 319.08562,96.516431 459.75517,436.50846 180.77414,437.28932 319.08562,96.516431 z"
       style="font-size:12px;fill:#000000;fill-opacity:1;fill-rule:evenodd;stroke:none"
       inkscape:connector-curvature="0" />
    <path
       sodipodi:nodetypes="cccc"
       id="path616"
       d="M 318.90177,240.09532 481.56433,437.7441 158.96498,438.19792 318.90177,240.09532 z"
       style="font-size:12px;fill:#ffce00;fill-opacity:1;fill-rule:evenodd;stroke:none"
       inkscape:connector-curvature="0" />
  </g>
</svg>

<?xml version="1.0" encoding="UTF-8" standalone="no"?>
<!-- Created with Sodipodi ("http://www.sodipodi.com/") -->
<svg id="svg604" xmlns:rdf="http://www.w3.org/1999/02/22-rdf-syntax-ns#" xmlns="http://www.w3.org/2000/svg" height="480" width="640" version="1.1" xmlns:cc="http://creativecommons.org/ns#" xmlns:dc="http://purl.org/dc/elements/1.1/">
 <metadata id="metadata3135">
  <rdf:RDF>
   <cc:Work rdf:about="">
    <dc:format>image/svg+xml</dc:format>
    <dc:type rdf:resource="http://purl.org/dc/dcmitype/StillImage"/>
   </cc:Work>
  </rdf:RDF>
 </metadata>
 <g id="flag" fill-rule="evenodd">
  <rect id="rect607" height="480" width="640" y="0" x="0" fill="#65cfff"/>
  <path id="path615" d="m318.9 41.991 162.66 395.3-322.6 0.91 159.94-396.21z" fill="#fff"/>
  <path id="path617" d="m319.09 96.516 140.67 339.99-278.99 0.78 138.32-340.77z"/>
  <path id="path616" d="m318.9 240.1 162.66 197.64-322.6 0.46 159.94-198.1z" fill="#ffce00"/>
 </g>
</svg>
